X:1
T: The Cambro Britons 1
N:
C:
S:
A:
O:
R:
M:2/4
K:G
I:speed 112
K:G
M:2/4
L:1/16
g4 d2 B2 | G2 d2 c2 A2 | F2 c2 A2 F2 | G2 B d g d B d |\
g4 d2 B2 | G2 d2 c2 A2 | F2 A2 F2 D2 | G4 G4 |
g4 d2 B2 | G2 d2 c2 A2 | F2 c2 A2 F2 | G2 B d g d B d |\
g4 d2 B2 | G2 d2 c2 A2 | F2 A2 F2 D2 | G4 G4 |
D2 c4 A2 | B2 d2 f2 g2 | D2 c4 A2 | B2 d2 B2 G2 |\
B2 d2 g2 b2 | c2 e2 a2 c'2 | a2 c'2 a2 f2 | g4 g4 |
D2 c4 A2 | B2 d2 f2 g2 | D2 c4 A2 | B2 d2 B2 G2 |\
B2 d2 g2 b2 | c2 e2 a2 c'2 | a2 c'2 a2 f2 | g4 g4 |]
